X: 29548
T: Nocturno
R: jig
M: 6/8
K: Eminor
GF|:EEE DEG|A3 AGA|B2B ABd|e3 ede|
g2e dBd|ABB AGB|AAA GFG|1 ,3 F3 FGF:|2 E3 GGF:|4 E2E F GB||
|:e2B ed^c|d2d ^cBc|GGE G B2|A6-|ABc BAB|
GGE FGB|eee fgf|d6-|daa gfg:|e4||

